X:1
T:Title
%%score { ( 1 3 ) | ( 2 4 ) } { 5 | ( 6 7 ) }
L:1/8
Q:1/4=100
M:4/4
K:Eb
V:1 treble nm="Grand Piano"
V:3 treble 
V:2 bass 
V:4 bass 
V:5 treble nm="Bright Piano, Keyboard"
V:6 treble 
V:7 treble 
V:1
 .[B,EG]2 .[EG]2 .[B,EG]2 .[CEG]2 |[M:3/4] .[B,EG]2 .[CEG]2 .[B,EG]2 |[M:1/4] E3/2 z/ | %3
w: Grace~Wilbur~Conant * * *|||
[M:4/4] [B,EG]2 [CGB]2 [B,EG]2 [CF]2 | [B,EG]2 [CGB]2 [B,EG]2 [CF]2 | [CFA]2 [EG]2 [CEF]2 [EG]2 | %6
w: |||
 [CFA]6 z2 | [CFA]2 [CFc]2 [DFB]2 [DA]2 | [B,EG]2 [B,FB]2 [CEA]2 [G,CG]2 | %9
w: |||
 [CF]2 [B,E]2 [A,B,D]2 [G,B,E]2 |[M:3/4] [FB]6 |[M:1/4] [DAc]>[Ad] | %12
w: |||
[M:4/4] [Ge]2 [Gc]2 [Ad]2 [CAc]>[DAB] | [CGc]2 [_DG]2 [=DAB]2 [B,DG]>[A,DF] | E2 F2 G2 B2 | %15
w: |||
 [DG]6 [DF]>[DG] | E2 G>A B2 G>B | .[Ec]2 .[EGc]2 [DGB]2 [G,DG]>[G,DF] | %18
w: |||
 [G,CE]2 [CEA]2 [B,EF]2 [A,DG]2[Q:1/4=98][Q:1/4=97][Q:1/4=95][Q:1/4=94][Q:1/4=92][Q:1/4=91][Q:1/4=89][Q:1/4=88][Q:1/4=86][Q:1/4=84][Q:1/4=83][Q:1/4=81][Q:1/4=80][Q:1/4=78][Q:1/4=77] | %19
w: |
[M:3/4] [G,E]6 |] %20
w: |
V:2
 .[E,,E,]2 .[B,,B,]2 .[E,,E,]2 .B,,2 |[M:3/4] .[E,,E,]2 .B,,2 .[E,,E,]2 |[M:1/4] B,, z/ F/ | %3
[M:4/4] .[E,,E,]2 .B,,2 .[E,,E,]2 .B,,>E | .[E,,E,]2 .B,,2 .[E,,E,]2 .B,,>G | %5
 .[E,,E,]2 .[F,C]2 .[E,,E,]2 .[F,C]2 | .[E,,E,]2 .F,2 .E,,2 .[F,CE]2 | [E,,E,]2 F,2 D,2 z z/ A/ | %8
 E,2 D,2 C,2 z z/ G/ | [A,,A,]2 [G,,G,]2 [F,,F,]2 [E,,E,]2 |[M:3/4] z2 D2 C2 |[M:1/4] B,,>[B,,B,] | %12
[M:4/4] [E,B,]2 [E,B,]2 [F,B,]2 B,,>B,, | E,2 =E,2 F,2 B,,>B,, | %14
 [E,G,]2 [E,A,E]2 [E,B,E]2 [E,G,E]2 | [B,,B,]6 [B,,A,]>[B,,A,] | %16
 [E,G,]2 [E,B,E]>[F,B,E] [G,B,E]2 [E,B,E]>[E,G,E] | z[K:treble] d[K:bass] z G G,,2 B,,>B,, | %18
 C,2 F,,2 B,,2 B,,2 |[M:3/4] E,6 |] %20
V:3
 x8 |[M:3/4] x6 |[M:1/4] C2 |[M:4/4] x8 | x8 | x8 | z4 .E,2 F>G | x8 | x8 | x8 |[M:3/4] E2 z2 z2 | %11
[M:1/4] x2 |[M:4/4] x8 | x8 | x8 | x8 | x8 | x8 | x8 |[M:3/4] x6 |] %20
V:4
 x8 |[M:3/4] x6 |[M:1/4] x2 |[M:4/4] x8 | x8 | x8 | x8 | z4 z2 B,,2 | z4 z2 B,,2 | x8 | %10
[M:3/4] [B,,,B,,]6 |[M:1/4] x2 |[M:4/4] x8 | x8 | x8 | x8 | x8 | [C,G,]2[K:treble][K:bass] C,2 z4 | %18
 x8 |[M:3/4] x6 |] %20
V:5
 z8 |[M:3/4] z6 |[M:1/4] z2 |[M:4/4] z8 | z8 | z8 | z8 | z8 | z8 | z8 |[M:3/4] z6 |[M:1/4] c>d | %12
[M:4/4] e2 [EGc]2 [DAd]2 [CAc]>[DAB] | [CGc]2 [CG]2 [CDAB]2 [CG]>F | [G,B,E]2 [EF]2 [EG]2 [B,EB]2 | %15
 [DG]6 [A,DF]2 | [G,B,E]2 [EG]2 [B,EB]2 [B,EG]2 | .[EGc]2 .[EGc]2 [B,DB]2 G>F | %18
 E2 [CEA]2 [EF]2 [DG]2 |[M:3/4] [G,B,E]6 |] %20
V:6
 z8 |[M:3/4] z6 |[M:1/4] z2 |[M:4/4] z8 | z8 | z8 | z8 | z8 | z8 | z8 |[M:3/4] z6 |[M:1/4] [DF]2 | %12
[M:4/4][K:bass] [E,,G,EG]2 [B,,,B,,]2 [F,,F,]2 [B,,,B,,]2 | [E,,E,]2 [=E,,=E,]2 [F,,F,]2 z z/ A,/ | %14
 E,,2 A,2 B,2 G,2 | B,2 B,,2 B,2 z z/ G/ | z2 B,2 z2 G,2[K:treble] | %17
 z d z G[K:bass] G,,2 [G,B,D]2 | [C,G,C]2 [F,,F,]2 [B,,B,]2 [B,,A,]2 |[M:3/4] [E,,B,,]6 |] %20
V:7
 x8 |[M:3/4] x6 |[M:1/4] x2 |[M:4/4] x8 | x8 | x8 | x8 | x8 | x8 | x8 |[M:3/4] x6 |[M:1/4] B,>A, | %12
[M:4/4][K:bass] x8 | z4 z2 [B,,,B,,]2 | x8 | z4 z2 B,,2 | E,,2 z z/ A/ G,,2 z z/[K:treble] B/ | %17
 C,,2 C2[K:bass] z4 | x8 |[M:3/4] x6 |] %20

